X: 5817
T: Calgary Fiddlers Welcome To Shetland
R: reel
M: 4/4
K: Emajor
|:ge e2 fede|fgag fede|ge e2 fede|fgag f2 ef|
ge e2 fede|fgag fede|ge e2 fede|fBdf e2 ec:|
|:BegB egBg|^BegB egBg|cegc egcg|=degd egdg|
[1 a2 ag a2 ba|ge e2 e2 ce|f2 fe fbge|f4 f2 ec:|
[2 a2 ag a2 ba|ge e2 e2 ce|f2 fe fbge|e8||

